X:1
T: Briar Rose
C:
R:Strathspey
Q: 128
K:Em
M:4/4
L:1/16
|:B4|e4 e3f g3f eg3|f3e ^df3 e4 e3d|B4 B3A G4 A3B|c3B AG3 F4 B4|
e4 e3f g4 ((3e2f2g2) |a3g fe3 ^d4 B4|e3d B3G A4 ((3A2B2c2) |B3c dB3 e4:|
|:e3f|g3f e3g Bb3 b4|a3g f3e ^df3 b4|a3g f3e d3e f3g|a3g f3e ^df3 b4|
g3f e3g Bb3 b4|a3g ac'3 f4 b3a|g3f e3^d eB3 A3c|BG3 F3B E4:|
